modules/hawcons-filled/icons/icon-20-one-finger-swipe-up.svg

<?xml version="1.0" encoding="UTF-8" standalone="no"?>
<svg width="32px" height="32px" viewBox="0 0 32 32" version="1.1" xmlns="http://www.w3.org/2000/svg" xmlns:xlink="http://www.w3.org/1999/xlink" xmlns:sketch="http://www.bohemiancoding.com/sketch/ns">
    <!-- Generator: Sketch 3.0.3 (7891) - http://www.bohemiancoding.com/sketch -->
    <title>icon 20 one finger swipe up</title>
    <desc>Created with Sketch.</desc>
    <defs></defs>
    <g id="Page-1" stroke="none" stroke-width="1" fill="none" fill-rule="evenodd" sketch:type="MSPage">
        <g id="icon-20-one-finger-swipe-up" sketch:type="MSArtboardGroup" fill="#929292">
            <path d="M19.1151466,27.9875042 C15.6549889,27.8125013 13.5455598,25.8149813 11.8625221,22.9830936 C7.95050863,16.4007216 5.14900956,13.3887562 6.23617935,12.2957153 C7.34677642,11.1791206 10.056747,13.5979243 12.1151466,15.7983451 L12.1151466,5.50863659 C12.1151466,4.66642015 12.7867195,4 13.6151466,4 C14.4493494,4 15.1151466,4.67543961 15.1151466,5.50863659 L15.1151466,12.5 L15.1151466,15 L16.1151466,15 L16.1151466,12.4325233 L16.1151466,10.4908981 C16.1151466,9.67622006 16.7867195,9 17.6151466,9 C18.4493494,9 19.1151466,9.66749783 19.1151466,10.4908981 L19.1151466,12.5082011 L19.1151466,14 L20.1151466,14 L20.1151466,12.5082011 L20.1151466,11.4912653 C20.1151466,10.6625444 20.7867195,10 21.6151466,10 C22.4493494,10 23.1151466,10.6676622 23.1151466,11.4912653 L23.1151466,12.6781559 L23.1151466,15 L24.1151466,15 L24.1151466,14.7497253 L24.1151466,12.5063976 C24.1151466,11.6764628 24.7867195,11 25.6151466,11 C26.4493494,11 27.1151466,11.6744372 27.1151466,12.5063976 L27.1151466,17.2468012 L27.1151466,20.5 C27.1151466,24.4741216 24.0241627,27.7263047 20.1151466,27.9835977 L20.1151466,18.950001 L23.3651466,22.200001 L24.1151466,21.450001 L19.6151466,16.950001 L15.1151466,21.450001 L15.8651466,22.200001 L19.1151466,18.950001 L19.1151466,27.9875042 L19.1151466,27.9875042 Z" id="one-finger-swipe-up" sketch:type="MSShapeGroup"></path>
        </g>
    </g>
</svg>

<svg width="32" height="32" viewBox="0 0 32 32" xmlns="http://www.w3.org/2000/svg"><path d="M19.115 27.988c-3.46-.175-5.57-2.173-7.252-5.005-3.912-6.582-6.714-9.594-5.627-10.687 1.11-1.117 3.82 1.302 5.88 3.502V5.508a1.5 1.5 0 0 1 3 0V15h1v-4.509a1.501 1.501 0 0 1 3 0V14h1v-2.509c0-.828.67-1.491 1.5-1.491.833 0 1.5.668 1.5 1.491V15h1v-2.494a1.5 1.5 0 1 1 3 0V20.5a7.5 7.5 0 0 1-7 7.484V18.95l3.25 3.25.75-.75-4.5-4.5-4.5 4.5.75.75 3.25-3.25v9.038z" fill="#929292" fill-rule="evenodd"/></svg>
